src/assets/img/icons/buttons/register.svg

<svg xmlns:xlink="http://www.w3.org/1999/xlink" height="20.15" width="20.95" xmlns="http://www.w3.org/2000/svg"><use height="20.15" width="20.95" xlink:href="#a"/><defs><linearGradient gradientTransform="matrix(.0064 0 0 .0123 5.2 -.05)" gradientUnits="userSpaceOnUse" id="b" spreadMethod="pad" x1="-819.2" x2="819.2"><stop offset="0" stop-color="#ffa2d0"/><stop offset="1" stop-color="#fff"/></linearGradient><linearGradient gradientTransform="matrix(-.0014 -.0051 .0024 -.0006 25.4 -9.9)" gradientUnits="userSpaceOnUse" id="c" spreadMethod="pad" x1="-819.2" x2="819.2"><stop offset="0" stop-color="#fe78a0"/><stop offset="1" stop-color="#ffd5e1"/></linearGradient><linearGradient gradientTransform="matrix(-.0011 -.0043 .0024 -.0006 25.65 -7.4)" gradientUnits="userSpaceOnUse" id="d" spreadMethod="pad" x1="-819.2" x2="819.2"><stop offset="0" stop-color="#4d0017"/><stop offset="1" stop-color="#cc003e"/></linearGradient><g id="a" fill-rule="evenodd"><path d="M-10.5-6.5 0-10.1v20.15Q-3.65 7-5.9 3.85-8.4.25-10.5-6.5" fill="#fff" transform="translate(10.5 10.1)"/><path d="m0-10.1 10.45 3.6q-2 6.75-4.6 10.35Q3.9 6.8 0 10.05V-10.1" fill="url(#b)" transform="translate(10.5 10.1)"/><path d="M.95-7.95q.3-.3.75-.35l.85.05.65.55.35.75.3 3.05 2.4 1.5.25.15.55.55.2.8-.15.55-.8.85-.05.05-2.75 1.2-.75 3-.05.2q-.3.75-1.05.95H.8l-.7-.45-2.1-2.3-3.05.25-.85-.15-.6-.6q-.45-.7-.15-1.45l.1-.15L-5-1.6l-1.2-2.85-.1-.6.1-.6.25-.4.7-.5.85-.05 3 .6L.1-7.25l.85-.7" fill="url(#c)" transform="translate(10.5 10.1)"/><path d="m1.25-6 .65-.1.4.5.3 2.7 2.25 1.4q.35.2.3.6v.2l-.35.35L2.35.75l-.7 2.7-.4.4q-.4.1-.65-.2l-1.8-2-2.7.2q-.4 0-.6-.3L-4.55 1l1.35-2.45-1-2.5v-.45l.1-.2q.25-.3.65-.2l2.6.55L1.25-6" fill="url(#d)" transform="translate(10.5 10.1)"/></g></defs></svg>

<?xml version="1.0" encoding="UTF-8" standalone="no"?>
<svg xmlns:xlink="http://www.w3.org/1999/xlink" height="20.15px" width="20.95px" xmlns="http://www.w3.org/2000/svg">
  <g transform="matrix(1.0, 0.0, 0.0, 1.0, 10.5, 10.1)">
    <use height="20.15" transform="matrix(1.0, 0.0, 0.0, 1.0, -10.5, -10.1)" width="20.95" xlink:href="#shape0"/>
  </g>
  <defs>
    <g id="shape0" transform="matrix(1.0, 0.0, 0.0, 1.0, 10.5, 10.1)">
      <path d="M-10.5 -6.5 L0.0 -10.1 0.0 10.05 Q-3.65 7.0 -5.9 3.85 -8.4 0.25 -10.5 -6.5" fill="#ffffff" fill-rule="evenodd" stroke="none"/>
      <path d="M0.0 -10.1 L10.45 -6.5 Q8.45 0.25 5.85 3.85 3.9 6.8 0.0 10.05 L0.0 -10.1" fill="url(#gradient0)" fill-rule="evenodd" stroke="none"/>
      <path d="M0.95 -7.95 Q1.25 -8.25 1.7 -8.3 L2.55 -8.25 3.2 -7.7 3.55 -6.95 3.85 -3.9 6.25 -2.4 6.5 -2.25 7.05 -1.7 7.25 -0.9 7.1 -0.35 6.3 0.5 6.25 0.55 3.5 1.75 2.75 4.75 2.7 4.95 Q2.4 5.7 1.65 5.9 L0.8 5.9 0.1 5.45 -2.0 3.15 -5.05 3.4 -5.9 3.25 -6.5 2.65 Q-6.95 1.95 -6.65 1.2 L-6.55 1.05 -5.0 -1.6 -6.2 -4.45 -6.3 -5.05 -6.2 -5.65 -5.95 -6.05 -5.25 -6.55 -4.4 -6.6 -1.4 -6.0 0.1 -7.25 0.95 -7.95" fill="url(#gradient1)" fill-rule="evenodd" stroke="none"/>
      <path d="M1.25 -6.0 L1.9 -6.1 2.3 -5.6 2.6 -2.9 4.85 -1.5 Q5.2 -1.3 5.15 -0.9 L5.15 -0.7 4.8 -0.35 2.35 0.75 1.65 3.45 1.25 3.85 Q0.85 3.95 0.6 3.65 L-1.2 1.65 -3.9 1.85 Q-4.3 1.85 -4.5 1.55 L-4.55 1.0 -3.2 -1.45 -4.2 -3.95 -4.2 -4.4 -4.1 -4.6 Q-3.85 -4.9 -3.45 -4.8 L-0.85 -4.25 1.25 -6.0" fill="url(#gradient2)" fill-rule="evenodd" stroke="none"/>
    </g>
    <linearGradient gradientTransform="matrix(0.0064, 0.0, 0.0, 0.0123, 5.2, -0.05)" gradientUnits="userSpaceOnUse" id="gradient0" spreadMethod="pad" x1="-819.2" x2="819.2">
      <stop offset="0.0" stop-color="#ffa2d0"/>
      <stop offset="1.0" stop-color="#ffffff"/>
    </linearGradient>
    <linearGradient gradientTransform="matrix(-0.0014, -0.0051, 0.0024, -6.0E-4, 25.4, -9.9)" gradientUnits="userSpaceOnUse" id="gradient1" spreadMethod="pad" x1="-819.2" x2="819.2">
      <stop offset="0.0" stop-color="#fe78a0"/>
      <stop offset="1.0" stop-color="#ffd5e1"/>
    </linearGradient>
    <linearGradient gradientTransform="matrix(-0.0011, -0.0043, 0.0024, -6.0E-4, 25.65, -7.4)" gradientUnits="userSpaceOnUse" id="gradient2" spreadMethod="pad" x1="-819.2" x2="819.2">
      <stop offset="0.0" stop-color="#4d0017"/>
      <stop offset="1.0" stop-color="#cc003e"/>
    </linearGradient>
  </defs>
</svg>
